client/public/media/icons/duotone/General/Dislike.svg

<svg height="24" viewBox="0 0 24 24" width="24" xmlns="http://www.w3.org/2000/svg"><g fill="none" fill-rule="evenodd"><path d="m0 0h24v24h-24z"/><g fill="#000"><path d="m2.70963455 10v9l1.15259873.3841996c1.22359763.4078659 2.50494804.6158004 3.79473319.6158004h3.59325633c1.4300431 0 2.6612875-1.009379 2.9417421-2.4116516l.7491986-3.7459932c.3249359-1.6246792-.7287144-3.2051546-2.3533936-3.5300904-.2592141-.0518428-.5241434-.0691976-.7879055-.0516135l-3.59022985.2393487.36419638-4.00616019c.06849317-.75342486-.48675367-1.41972107-1.24017853-1.48821423-.04123302-.00374846-.08261479-.00562558-.12401785-.00562558-.93059561 0-1.79295615.48826024-2.27174363 1.28623939z" transform="matrix(-1 0 0 1 17.709634 0)"/><rect height="11" opacity=".3" rx="1" transform="matrix(-1 0 0 1 39 0)" width="5" x="17" y="9"/></g></g></svg>

<?xml version="1.0" encoding="UTF-8"?>
<svg width="24px" height="24px" viewBox="0 0 24 24" version="1.1" xmlns="http://www.w3.org/2000/svg" xmlns:xlink="http://www.w3.org/1999/xlink">
    <g id="Stockholm-icons-/-General-/-Dislike" stroke="none" stroke-width="1" fill="none" fill-rule="evenodd">
        <rect id="bound" x="0" y="0" width="24" height="24"></rect>
        <path d="M2.70963455,10 L2.70963455,19 L3.86223328,19.3841996 C5.08583091,19.7920655 6.36718132,20 7.65696647,20 L11.2502228,20 C12.6802659,20 13.9115103,18.990621 14.1919649,17.5883484 L14.9411635,13.8423552 C15.2660994,12.217676 14.2124491,10.6372006 12.5877699,10.3122648 C12.3285558,10.260422 12.0636265,10.2430672 11.7998644,10.2606513 L8.20963455,10.5 L8.57383093,6.49383981 C8.6423241,5.74041495 8.08707726,5.07411874 7.3336524,5.00562558 C7.29241938,5.00187712 7.25103761,5 7.20963455,5 L7.20963455,5 C6.27903894,5 5.4166784,5.48826024 4.93789092,6.28623939 L2.70963455,10 Z" id="Path-42" fill="#000000" transform="translate(8.854817, 12.500000) scale(-1, 1) translate(-8.854817, -12.500000) "></path>
        <rect id="Rectangle-153" fill="#000000" opacity="0.3" transform="translate(19.500000, 14.500000) scale(-1, 1) translate(-19.500000, -14.500000) " x="17" y="9" width="5" height="11" rx="1"></rect>
    </g>
</svg>
